X:701
T:Reel 701
M:4/4
K:Dmaj
L:1/8
FE|DCDE FGFE|DGFG AGFE|D2FE FEFG|Ad=cA GBAE|DEFE DEFD|AD (3EDE FGAF| (3GFE FG EF (3EFG |Addc d2|A2|defB cBAA|AGFG AGFA|dAFG A2FA|fdec dcAG|FGAB c2dc|dBcA BGAG|FGAB cdce|dBcA BGAF|
